assets/images/icons/src/money.svg

<?xml version="1.0" encoding="utf-8"?>
<!-- Generated by IcoMoon.io -->
<!DOCTYPE svg PUBLIC "-//W3C//DTD SVG 1.1//EN" "http://www.w3.org/Graphics/SVG/1.1/DTD/svg11.dtd">
<svg version="1.1" xmlns="http://www.w3.org/2000/svg" xmlns:xlink="http://www.w3.org/1999/xlink" width="15" height="14" viewBox="0 0 15 14">
<path fill="#444444" d="M6 9h3v-0.75h-1v-3.5h-0.891l-1.156 1.070 0.602 0.625q0.328-0.289 0.43-0.445h0.016v2.25h-1v0.75zM10 7q0 0.547-0.164 1.109t-0.465 1.047-0.793 0.789-1.078 0.305-1.078-0.305-0.793-0.789-0.465-1.047-0.164-1.109 0.164-1.109 0.465-1.047 0.793-0.789 1.078-0.305 1.078 0.305 0.793 0.789 0.465 1.047 0.164 1.109zM14 9v-4q-0.828 0-1.414-0.586t-0.586-1.414h-9q0 0.828-0.586 1.414t-1.414 0.586v4q0.828 0 1.414 0.586t0.586 1.414h9q0-0.828 0.586-1.414t1.414-0.586zM15 2.5v9q0 0.203-0.148 0.352t-0.352 0.148h-14q-0.203 0-0.352-0.148t-0.148-0.352v-9q0-0.203 0.148-0.352t0.352-0.148h14q0.203 0 0.352 0.148t0.148 0.352z"></path>
</svg>

<svg xmlns="http://www.w3.org/2000/svg" width="15" height="14" viewBox="0 0 15 14"><path fill="#444" d="M6 9h3v-.75H8v-3.5h-.891L5.953 5.82l.602.625q.328-.289.43-.445h.016v2.25h-1V9zm4-2q0 .547-.164 1.109t-.465 1.047-.793.789-1.078.305-1.078-.305-.793-.789-.465-1.047T5 7t.164-1.109.465-1.047.793-.789T7.5 3.75t1.078.305.793.789.465 1.047T10 7zm4 2V5q-.828 0-1.414-.586T12 3H3q0 .828-.586 1.414T1 5v4q.828 0 1.414.586T3 11h9q0-.828.586-1.414T14 9zm1-6.5v9q0 .203-.148.352T14.5 12H.5q-.203 0-.352-.148T0 11.5v-9q0-.203.148-.352T.5 2h14q.203 0 .352.148T15 2.5z"/></svg>
